!!!OTL: DREIMAL UM DAS KAESTCHEN
!!!ARE: Europa, Mitteleuropa, Deutschland, Oberdiebach am Rhein
!!!SCT: K2166
!!!YEM: Copyright 1995, estate of Helmut Schaffrath.
**kern
*ICvox
*Ivox
*M2/4
*k[f#]
*G:
=1
{8dd
8dd
8ee
8ee
=2
4dd
8b}
{8g
=3
8dd
8dd
8dd
8dd
=4
4gg
8r}
{8g
=5
8dd
8dd
8ee
8ee
=6
4dd
4dd}
=7
{4dd
4dd
=8
4gg
8r}
{8g
=9
8dd
8dd
8a
8ee
=10
8dd
8dd
8b}
{8g
=11
8dd
8dd
8dd
8g
=12
4dd
8dd}
{8g
=13
8dd
8dd
8dd
8g
=14
8dd
8dd
8dd}
{8g
=15
8dd
8dd
8ee
8dd
=16
4dd
4dd}
==
!!!AGN: Kinder - Lied, Reigen, Tanz - Spiel
!!!ONB: ESAC (Essen Associative Code) Database: KINDER
!!!AMT: simple duple
!!!AIN: vox
!!!EED: Helmut Schaffrath
!!!EEV: 1.0
*-
